client/src/data/flag-icon-css-master/flags/1x1/gr.svg

<svg viewBox="0 0 512 512" xmlns="http://www.w3.org/2000/svg"><g fill-rule="evenodd"><path d="m0 0h512v57h-512z" fill="#005bae" stroke-width=".8"/><path d="m0 57h512v57h-512z" fill="#fff" stroke-width=".8"/><path d="m0 114h512v57h-512z" fill="#005bae" stroke-width=".8"/><path d="m0 171h512v57h-512z" fill="#fff" stroke-width=".8"/><path d="m0 228h512v56.9h-512z" fill="#005bae" stroke-width=".8"/><path d="m0 284.9h512v57h-512z" fill="#fff" stroke-width=".8"/><path d="m0 341.9h512v57h-512z" fill="#005bae" stroke-width=".8"/><path d="m0 398.9h512v57h-512z" fill="#fff" stroke-width=".8"/></g><path d="m0 0h284.9v284.9h-284.9z" fill="#005bae" stroke-width="3"/><g fill="#fff" fill-rule="evenodd" stroke-width="1.3" transform="scale(.77)"><path d="m148 0h74v370h-74z"/><path d="m0 148h370v74h-370z"/></g><path d="m0 455h512v57h-512z" fill="#005bae" fill-rule="evenodd" stroke-width=".8"/></svg>

<svg xmlns="http://www.w3.org/2000/svg" id="flag-icon-css-gr" viewBox="0 0 512 512">
  <path fill="#005bae" fill-rule="evenodd" stroke-width=".8" d="M0 0h512v57H0z"/>
  <path fill="#fff" fill-rule="evenodd" stroke-width=".8" d="M0 57h512v57H0z"/>
  <path fill="#005bae" fill-rule="evenodd" stroke-width=".8" d="M0 114h512v57H0z"/>
  <path fill="#fff" fill-rule="evenodd" stroke-width=".8" d="M0 171h512v57H0z"/>
  <path fill="#005bae" fill-rule="evenodd" stroke-width=".8" d="M0 228h512v56.9H0z"/>
  <path fill="#fff" fill-rule="evenodd" stroke-width=".8" d="M0 284.9h512v57H0z"/>
  <path fill="#005bae" fill-rule="evenodd" stroke-width=".8" d="M0 341.9h512v57H0z"/>
  <path fill="#fff" fill-rule="evenodd" stroke-width=".8" d="M0 398.9h512v57H0z"/>
  <path fill="#005bae" stroke-width="3" d="M0 0h284.9v284.9H0z"/>
  <g fill="#fff" fill-rule="evenodd" stroke-width="1.3">
    <path d="M148 0h74v370h-74z" transform="scale(.77)"/>
    <path d="M0 148h370v74H0z" transform="scale(.77)"/>
  </g>
  <path fill="#005bae" fill-rule="evenodd" stroke-width=".8" d="M0 455h512v57H0z"/>
</svg>
